T: Flooded Road To Glenties, The
M: 4/4
L: 1/8
K: Bdor
|:Bm A |A E|Bm A|C#m F#m|F#m A|G D|F#m|A E:||:Bm|Bm A|Bm A|C#m F#m|F#m A|G D|F#m|A E:|
